static/images/show_more.svg

<svg width="21" height="22" viewBox="0 0 21 22" fill="none" xmlns="http://www.w3.org/2000/svg">
<path d="M9.99861 13.658C10.2412 13.658 10.4423 13.5723 10.6317 13.3838L15.0868 8.9855C15.2407 8.8427 15.3176 8.65991 15.3176 8.44857C15.3176 8.02016 14.9626 7.67744 14.5188 7.67744C14.294 7.67744 14.0988 7.76312 13.939 7.91734L9.99269 11.8244L6.05819 7.91734C5.89844 7.76312 5.69728 7.67744 5.47836 7.67744C5.03462 7.67744 4.68555 8.02016 4.68555 8.44857C4.68555 8.66562 4.75655 8.8427 4.91038 8.9855L9.36554 13.3838C9.55487 13.5723 9.75603 13.6522 9.99861 13.658Z" fill="#FAC33D"/>
</svg>

<svg xmlns="http://www.w3.org/2000/svg" width="21" height="22" fill="none"><path fill="#FAC33D" d="M9.999 13.658a.853.853 0 0 0 .633-.274l4.455-4.399a.707.707 0 0 0 .23-.536.782.782 0 0 0-.798-.772.816.816 0 0 0-.58.24l-3.946 3.907-3.935-3.907a.826.826 0 0 0-.58-.24.777.777 0 0 0-.792.772c0 .217.07.394.224.537l4.456 4.398c.189.188.39.268.633.274Z"/></svg>
